build/svg/cmd/sc_starshapes.signet.svg

<?xml version="1.0" encoding="UTF-8" standalone="no"?>
<svg
   xmlns:dc="http://purl.org/dc/elements/1.1/"
   xmlns:cc="http://creativecommons.org/ns#"
   xmlns:rdf="http://www.w3.org/1999/02/22-rdf-syntax-ns#"
   xmlns:svg="http://www.w3.org/2000/svg"
   xmlns="http://www.w3.org/2000/svg"
   xmlns:sodipodi="http://sodipodi.sourceforge.net/DTD/sodipodi-0.dtd"
   xmlns:inkscape="http://www.inkscape.org/namespaces/inkscape"
   viewBox="0 0 16 16"
   version="1.1"
   id="svg4"
   sodipodi:docname="sc_starshapes.signet.svg"
   inkscape:version="0.92.4 (5da689c313, 2019-01-14)"
   inkscape:export-filename="/home/jupiter007/Libreoffice yaru theme fullcolor/build/cmd/sc_starshapes.signet.png"
   inkscape:export-xdpi="96"
   inkscape:export-ydpi="96"><metadata
   id="metadata10">
  <rdf:RDF>
    <cc:Work
       rdf:about="">
      <dc:format>image/svg+xml</dc:format>
      <dc:type
         rdf:resource="http://purl.org/dc/dcmitype/StillImage" />
    </cc:Work>
  </rdf:RDF>
</metadata>
<defs
   id="defs8" />
<sodipodi:namedview
   pagecolor="#ffffff"
   bordercolor="#666666"
   borderopacity="1"
   objecttolerance="10"
   gridtolerance="10"
   guidetolerance="10"
   inkscape:pageopacity="0"
   inkscape:pageshadow="2"
   inkscape:window-width="1920"
   inkscape:window-height="1011"
   id="namedview6"
   showgrid="false"
   inkscape:zoom="14.75"
   inkscape:cx="0.44067797"
   inkscape:cy="8"
   inkscape:window-x="1920"
   inkscape:window-y="32"
   inkscape:window-maximized="1"
   inkscape:current-layer="svg4" />
/&gt;<path
   style="fill:#000000;stroke:#000000;opacity:0.6;stroke-width:2;stroke-miterlimit:4;stroke-dasharray:none;stroke-linejoin:round"
   id="path817"
   fill="#232629"
   d="m7.5 2c-.7595871 0-.9095609 1.3205781-1.6113281 1.6113281-.7013305.2905-1.7405685-.5368125-2.2773438 0-.5367752.5366875.2905004 1.5759063 0 2.2773438-.2906818.7016875-1.6113281.8517031-1.6113281 1.6113281s1.3206463.9095156 1.6113281 1.6113281c.2905004.7013125-.5367752 1.7405309 0 2.2773439.5367753.536687 1.5760133-.290625 2.2773438 0 .7017672.290625.851741 1.611328 1.6113281 1.611328s.9095616-1.320703 1.6113281-1.611328c.1592966-.066011.3371699-.069083.5214844-.048828l3.0136715 3.013672.353516-1.353516 1.353516-.353516-3.013672-3.0136715c-.020268-.1843109-.017155-.362192.048828-.5214844.290681-.7018125 1.611328-.8517031 1.611328-1.6113281s-1.320647-.9096406-1.611328-1.6113281c-.290501-.7014375.536775-1.7405938 0-2.2773438-.536775-.5368125-1.576013.2905-2.2773439 0-.7017665-.29075-.851741-1.6113281-1.6113281-1.6113281zm0 3a2.4999999 2.5 0 0 1 2.5 2.5 2.4999999 2.5 0 0 1 -2.5 2.5 2.4999999 2.5 0 0 1 -2.5-2.5 2.4999999 2.5 0 0 1 2.5-2.5z" />
<path
   d="m7.5 2c-.7595871 0-.9095609 1.3205781-1.6113281 1.6113281-.7013305.2905-1.7405685-.5368125-2.2773438 0-.5367752.5366875.2905004 1.5759063 0 2.2773438-.2906818.7016875-1.6113281.8517031-1.6113281 1.6113281s1.3206463.9095156 1.6113281 1.6113281c.2905004.7013125-.5367752 1.7405309 0 2.2773439.5367753.536687 1.5760133-.290625 2.2773438 0 .7017672.290625.851741 1.611328 1.6113281 1.611328s.9095616-1.320703 1.6113281-1.611328c.1592966-.066011.3371699-.069083.5214844-.048828l3.0136715 3.013672.353516-1.353516 1.353516-.353516-3.013672-3.0136715c-.020268-.1843109-.017155-.362192.048828-.5214844.290681-.7018125 1.611328-.8517031 1.611328-1.6113281s-1.320647-.9096406-1.611328-1.6113281c-.290501-.7014375.536775-1.7405938 0-2.2773438-.536775-.5368125-1.576013.2905-2.2773439 0-.7017665-.29075-.851741-1.6113281-1.6113281-1.6113281zm0 3a2.4999999 2.5 0 0 1 2.5 2.5 2.4999999 2.5 0 0 1 -2.5 2.5 2.4999999 2.5 0 0 1 -2.5-2.5 2.4999999 2.5 0 0 1 2.5-2.5z"
   fill="#232629"
   id="path2"
   style="fill:#ffffff" />
</svg>

<svg xmlns="http://www.w3.org/2000/svg" viewBox="0 0 16 16">/&gt;<path d="M7.5 2c-.76 0-.91 1.32-1.611 1.611-.702.29-1.74-.536-2.278 0-.536.537.29 1.576 0 2.278C3.321 6.59 2 6.74 2 7.5s1.32.91 1.611 1.611c.29.702-.536 1.74 0 2.278.537.536 1.576-.291 2.278 0C6.59 11.679 6.74 13 7.5 13s.91-1.32 1.611-1.611c.16-.066.337-.07.522-.05l3.013 3.015L13 13l1.354-.354-3.014-3.013c-.02-.184-.017-.362.049-.522C11.679 8.41 13 8.26 13 7.5s-1.32-.91-1.611-1.611c-.29-.702.536-1.74 0-2.278-.537-.536-1.576.29-2.278 0C8.41 3.321 8.26 2 7.5 2zm0 3A2.5 2.5 0 0110 7.5 2.5 2.5 0 017.5 10 2.5 2.5 0 015 7.5 2.5 2.5 0 017.5 5z" stroke="#000" opacity=".6" stroke-width="2" stroke-linejoin="round"/><path d="M7.5 2c-.76 0-.91 1.32-1.611 1.611-.702.29-1.74-.536-2.278 0-.536.537.29 1.576 0 2.278C3.321 6.59 2 6.74 2 7.5s1.32.91 1.611 1.611c.29.702-.536 1.74 0 2.278.537.536 1.576-.291 2.278 0C6.59 11.679 6.74 13 7.5 13s.91-1.32 1.611-1.611c.16-.066.337-.07.522-.05l3.013 3.015L13 13l1.354-.354-3.014-3.013c-.02-.184-.017-.362.049-.522C11.679 8.41 13 8.26 13 7.5s-1.32-.91-1.611-1.611c-.29-.702.536-1.74 0-2.278-.537-.536-1.576.29-2.278 0C8.41 3.321 8.26 2 7.5 2zm0 3A2.5 2.5 0 0110 7.5 2.5 2.5 0 017.5 10 2.5 2.5 0 015 7.5 2.5 2.5 0 017.5 5z" fill="#fff"/></svg>
